static/img/device/fs2-user-enroll-face1.svg

<svg width="98" height="97" viewBox="0 0 98 97" fill="none" xmlns="http://www.w3.org/2000/svg">
<path d="M49.23 94.58C74.7621 94.58 95.46 73.8821 95.46 48.35C95.46 22.8179 74.7621 2.12 49.23 2.12C23.6979 2.12 3 22.8179 3 48.35C3 73.8821 23.6979 94.58 49.23 94.58Z" fill="white"/>
<path d="M29.1405 65.16C28.4205 66.11 25.8905 66.2 24.8505 65.34C22.2005 63.15 20.5505 57.33 21.0005 54.16C21.4705 50.83 23.6205 51.16 24.9705 51.94H73.5105C74.8605 51.16 77.0105 50.83 77.4805 54.16C77.9305 57.33 76.2805 63.14 73.6305 65.34C72.5905 66.2 70.0605 66.11 69.3405 65.16" fill="white"/>
<path d="M33.7198 89.11C34.1398 84.41 34.3398 79.93 33.8498 74.75C31.8598 72.5 30.6598 70.48 30.1998 69.22C28.8598 65.5 26.8798 58.78 26.7998 49.18C28.0198 44.75 29.7598 41.87 30.4398 34.62C30.5198 33.77 32.0198 30.78 33.4798 29.63L34.3398 28.88C36.5798 30.04 39.2198 30.71 42.1198 30.71C47.0298 30.71 50.7798 29.57 52.7698 28.66C56.2798 27.08 57.8598 27.06 60.8098 28.92L62.0198 29.52C65.7298 30.35 67.4198 32.58 68.0198 35.92C68.8498 40.48 68.5698 44.78 71.6598 49.17C70.9398 58.77 69.6098 65.49 68.2598 69.21C67.7998 70.47 66.5998 72.49 64.6098 74.74C64.1198 79.91 64.3198 84.4 64.7398 89.1" fill="white"/>
<path d="M34.3796 83.31C34.3396 80.57 34.1296 77.78 33.8496 74.75L34.2196 75.15C36.3196 77.44 39.2196 79.94 42.9696 82.12C46.1496 83.72 52.8096 83.68 55.5096 82.12C59.1796 79.99 62.0396 77.55 64.1196 75.3L64.6196 74.75C64.4996 75.99 62.0696 78.67 58.1596 82.49C54.2396 86.31 43.2496 87.64 34.3896 83.31H34.3796Z" fill="url(#paint0_linear_502_6497)"/>
<path d="M60.8099 28.94C57.8699 27.08 56.2799 27.1 52.7699 28.68C50.7699 29.58 47.0299 30.73 42.1199 30.73C33.8599 30.73 27.6699 25.26 26.8799 18.58C28.8499 22.39 32.6499 21.37 35.2099 20.73C31.6499 19.87 27.1699 12.01 29.7199 6.87C35.0499 13.73 42.1199 7.86 49.0099 9.22C48.2399 8.08 47.8099 7.97 46.5299 7.68C49.7899 7.23 63.8999 8.45999 65.7199 15.48" stroke="#544236" stroke-width="0.6"/>
<path d="M31.8001 18.57C22.0901 21.67 18.7401 33.74 19.3201 43.79C19.8201 42.74 19.7301 41.84 20.2201 41.75C19.7601 47.81 20.5401 51.73 21.0901 53.63" stroke="#544236" stroke-width="0.6"/>
<path d="M65.71 15.48C78.78 18.32 79.93 33.75 79.36 43.8C78.86 42.75 79.18 41.91 78.7 41.82C79.09 46.94 77.79 50.45 77.02 52.59" stroke="#544236" stroke-width="0.6"/>
<path d="M24.8496 51.63C25.7596 53.77 25.8696 59.07 26.1796 60.03C26.4896 60.99 28.0496 60.91 28.0496 60.91" stroke="#544236" stroke-width="0.6"/>
<path d="M62.0198 29.54C65.7298 30.37 67.4198 32.6 68.0198 35.94C68.8498 40.5 68.5698 44.8 71.6598 49.19C70.9398 58.79 69.6098 65.51 68.2598 69.23C67.3198 71.83 63.1998 77.65 55.4998 82.13C52.7998 83.69 46.1398 83.73 42.9598 82.13C35.2498 77.66 31.1398 71.83 30.1998 69.23C28.8598 65.51 26.8798 58.79 26.7998 49.19C28.0198 44.76 29.7598 41.88 30.4398 34.63C30.5198 33.78 32.0198 30.79 33.4798 29.64" stroke="#544236" stroke-width="0.6"/>
<path d="M73.5098 51.94C74.8598 51.16 77.0098 50.83 77.4798 54.16C77.9298 57.33 76.2798 63.14 73.6298 65.34C72.5898 66.2 70.0598 66.11 69.3398 65.16" stroke="#544236" stroke-width="0.6"/>
<path d="M73.6199 51.63C72.7099 53.77 72.5999 59.07 72.2899 60.03C71.9799 60.99 70.4199 60.91 70.4199 60.91" stroke="#544236" stroke-width="0.6"/>
<path d="M53.5908 46.91C55.6308 45.45 59.9708 43.96 62.5308 43.8C64.0708 43.7 65.8908 44.98 67.2208 46.05C62.3008 45.26 58.9108 45.52 53.5908 46.9V46.91Z" fill="#544236"/>
<path d="M55.0801 51.52C57.2801 48.74 61.5501 48.19 65.7101 51.36" stroke="#544236" stroke-width="0.6"/>
<path d="M43.6105 46.91C41.5705 45.45 37.2305 43.96 34.6705 43.8C33.1305 43.7 31.3105 44.98 29.9805 46.05C34.9005 45.26 38.2905 45.52 43.6005 46.9L43.6105 46.91Z" fill="#544236"/>
<path d="M42.1202 51.52C39.9202 48.74 35.6502 48.19 31.4902 51.36" stroke="#544236" stroke-width="0.6"/>
<path d="M35.1301 51.17C35.0901 52.3 36.0001 53.25 37.1601 53.29C38.3201 53.33 39.3001 52.44 39.3301 51.31C39.3701 50.18 38.4601 49.23 37.3001 49.19C36.1401 49.15 35.1701 50.04 35.1201 51.17H35.1301Z" fill="#544236"/>
<path d="M36.0605 50.76C36.0605 51.07 36.3005 51.32 36.6105 51.33C36.9205 51.33 37.1905 51.1 37.2005 50.79C37.2005 50.49 36.9605 50.23 36.6505 50.22C36.3405 50.22 36.0705 50.45 36.0605 50.75V50.76Z" fill="white"/>
<path d="M62.0704 51.17C62.1104 52.3 61.2004 53.25 60.0404 53.29C58.8804 53.33 57.9104 52.44 57.8704 51.31C57.8304 50.18 58.7404 49.23 59.9004 49.19C61.0604 49.15 62.0404 50.04 62.0804 51.17H62.0704Z" fill="#544236"/>
<path d="M61.1501 50.76C61.1501 51.07 60.9101 51.32 60.6001 51.33C60.2801 51.33 60.0201 51.1 60.0101 50.79C60.0001 50.49 60.2501 50.23 60.5601 50.22C60.8701 50.22 61.1401 50.45 61.1501 50.75V50.76Z" fill="white"/>
<path d="M44.5205 47.82C45.6905 48.86 46.8905 50.31 46.9405 51.49C47.0005 52.85 46.9705 57.85 46.5805 62.2" stroke="#544236" stroke-width="0.4" stroke-linecap="round" stroke-linejoin="round"/>
<path d="M45.0498 60.91C43.7998 61.34 43.7398 62.93 43.8698 63.44C44.0998 64.37 44.8698 64.33 45.7098 64.53C46.2098 64.63 46.6898 65.05 47.0198 65.22C48.0998 65.74 49.4198 65.78 50.4798 65.22C50.7998 65.05 51.2898 64.63 51.7898 64.53C52.6298 64.33 53.3998 64.37 53.6298 63.44C53.7598 62.93 53.6998 61.34 52.4498 60.91" stroke="#544236" stroke-width="0.6"/>
<path d="M40.1504 70.22C40.5604 71.45 44.2404 70.99 46.5104 71.44C47.7004 71.77 49.1204 71.77 50.4804 71.44C52.7404 70.9 56.4304 71.46 56.8404 70.22" stroke="#544236" stroke-width="0.6" stroke-linecap="round" stroke-linejoin="round"/>
<path d="M45.3604 74.41C47.1504 74.9 49.8604 74.89 51.6404 74.41" stroke="#544236" stroke-width="0.6" stroke-linecap="round" stroke-linejoin="round"/>
<path d="M46.5303 69.41C47.6303 69.79 49.3303 69.65 50.4603 69.41" stroke="#544236" stroke-width="0.4" stroke-linecap="round" stroke-linejoin="round"/>
<path d="M71.48 65.93C70.04 69.42 68.96 71.46 67.12 74.01C66.92 72.91 65.79 73.37 65.79 73.37" stroke="#544236" stroke-width="0.6"/>
<path d="M26.6396 65.92C28.3896 69.01 29.6396 71.73 31.3396 74.09C31.5396 72.99 32.6096 73.58 32.6096 73.58" stroke="#544236" stroke-width="0.6"/>
<path d="M61.8503 27.31C60.4503 25.68 56.8903 21.34 48.2603 23.68C43.9403 24.85 41.5703 25.19 39.8203 25.12" stroke="#544236" stroke-width="0.4" stroke-linecap="round" stroke-linejoin="round"/>
<path d="M62.9199 28.68C65.4099 29.08 68.2099 30.8 69.4599 35.94C69.9599 37.99 70.7399 41.53 73.5199 43.23" stroke="#544236" stroke-width="0.4" stroke-linecap="round" stroke-linejoin="round"/>
<path d="M29.7798 6.97998C28.9798 9.50998 35.3398 19.31 43.9298 15.14" stroke="#544236" stroke-width="0.4" stroke-linecap="round" stroke-linejoin="round"/>
<path d="M64.8301 21.57C66.7801 21.66 71.6101 23.58 73.9301 29.55" stroke="#544236" stroke-width="0.4" stroke-linecap="round" stroke-linejoin="round"/>
<path d="M64.6202 74.76C64.1302 79.93 64.3301 84.42 64.7501 89.12" stroke="#544236" stroke-width="0.6"/>
<path d="M33.8497 74.76C34.3397 79.93 34.1397 84.42 33.7197 89.12" stroke="#544236" stroke-width="0.6"/>
<path d="M28.0402 39.38C26.8002 42.91 25.2402 48.97 22.9102 50.22" stroke="#544236" stroke-width="0.4" stroke-linecap="round" stroke-linejoin="round"/>
<path d="M72.9199 56.14C73.6899 55.14 74.5399 53.63 75.7199 54.76" stroke="#544236" stroke-width="0.6" stroke-linecap="round" stroke-linejoin="round"/>
<path d="M74.51 55.24C74.64 56.97 74.51 60.52 72.71 62.01" stroke="#544236" stroke-width="0.6" stroke-linecap="round" stroke-linejoin="round"/>
<path d="M24.9597 51.94C23.6097 51.16 21.4598 50.83 20.9898 54.16C20.5398 57.33 22.1897 63.14 24.8397 65.34C25.8797 66.2 28.4098 66.11 29.1298 65.16" stroke="#544236" stroke-width="0.6"/>
<path d="M25.5402 56.14C24.7702 55.14 23.9202 53.63 22.7402 54.76" stroke="#544236" stroke-width="0.6" stroke-linecap="round" stroke-linejoin="round"/>
<path d="M23.9597 55.24C23.8297 56.97 23.9597 60.52 25.7597 62.01" stroke="#544236" stroke-width="0.6" stroke-linecap="round" stroke-linejoin="round"/>
<path d="M49.23 94.58C74.7621 94.58 95.46 73.8821 95.46 48.35C95.46 22.8179 74.7621 2.12 49.23 2.12C23.6979 2.12 3 22.8179 3 48.35C3 73.8821 23.6979 94.58 49.23 94.58Z" stroke="#65BABF" stroke-width="4.25" stroke-miterlimit="10"/>
<defs>
<linearGradient id="paint0_linear_502_6497" x1="49.5496" y1="86.64" x2="49.1996" y2="73.71" gradientUnits="userSpaceOnUse">
<stop stop-color="white"/>
<stop offset="1" stop-color="#C9CACA"/>
</linearGradient>
</defs>
</svg>

<svg xmlns="http://www.w3.org/2000/svg" width="98" height="97" fill="none" viewBox="0 0 98 97"><path fill="#fff" d="M49.23 94.58c25.532 0 46.23-20.698 46.23-46.23S74.762 2.12 49.23 2.12 3 22.818 3 48.35s20.698 46.23 46.23 46.23"/><path fill="#fff" d="M29.14 65.16c-.72.95-3.25 1.04-4.29.18-2.65-2.19-4.3-8.01-3.85-11.18.47-3.33 2.62-3 3.97-2.22h48.54c1.35-.78 3.5-1.11 3.97 2.22.45 3.17-1.2 8.98-3.85 11.18-1.04.86-3.57.77-4.29-.18"/><path fill="#fff" d="M33.72 89.11c.42-4.7.62-9.18.13-14.36-1.99-2.25-3.19-4.27-3.65-5.53-1.34-3.72-3.32-10.44-3.4-20.04 1.22-4.43 2.96-7.31 3.64-14.56.08-.85 1.58-3.84 3.04-4.99l.86-.75c2.24 1.16 4.88 1.83 7.78 1.83 4.91 0 8.66-1.14 10.65-2.05 3.51-1.58 5.09-1.6 8.04.26l1.21.6c3.71.83 5.4 3.06 6 6.4.83 4.56.55 8.86 3.64 13.25-.72 9.6-2.05 16.32-3.4 20.04-.46 1.26-1.66 3.28-3.65 5.53-.49 5.17-.29 9.66.13 14.36"/><path fill="url(#a)" d="M34.38 83.31c-.04-2.74-.25-5.53-.53-8.56l.37.4c2.1 2.29 5 4.79 8.75 6.97 3.18 1.6 9.84 1.56 12.54 0 3.67-2.13 6.53-4.57 8.61-6.82l.5-.55c-.12 1.24-2.55 3.92-6.46 7.74-3.92 3.82-14.91 5.15-23.77.82z"/><path stroke="#544236" stroke-width=".6" d="M60.81 28.94c-2.94-1.86-4.53-1.84-8.04-.26-2 .9-5.74 2.05-10.65 2.05-8.26 0-14.45-5.47-15.24-12.15 1.97 3.81 5.77 2.79 8.33 2.15-3.56-.86-8.04-8.72-5.49-13.86 5.33 6.86 12.4.99 19.29 2.35-.77-1.14-1.2-1.25-2.48-1.54 3.26-.45 17.37.78 19.19 7.8"/><path stroke="#544236" stroke-width=".6" d="M31.8 18.57c-9.71 3.1-13.06 15.17-12.48 25.22.5-1.05.41-1.95.9-2.04-.46 6.06.32 9.98.87 11.88M65.71 15.48c13.07 2.84 14.22 18.27 13.65 28.32-.5-1.05-.18-1.89-.66-1.98.39 5.12-.91 8.63-1.68 10.77M24.85 51.63c.91 2.14 1.02 7.44 1.33 8.4s1.87.88 1.87.88"/><path stroke="#544236" stroke-width=".6" d="M62.02 29.54c3.71.83 5.4 3.06 6 6.4.83 4.56.55 8.86 3.64 13.25-.72 9.6-2.05 16.32-3.4 20.04-.94 2.6-5.06 8.42-12.76 12.9-2.7 1.56-9.36 1.6-12.54 0-7.71-4.47-11.82-10.3-12.76-12.9-1.34-3.72-3.32-10.44-3.4-20.04 1.22-4.43 2.96-7.31 3.64-14.56.08-.85 1.58-3.84 3.04-4.99"/><path stroke="#544236" stroke-width=".6" d="M73.51 51.94c1.35-.78 3.5-1.11 3.97 2.22.45 3.17-1.2 8.98-3.85 11.18-1.04.86-3.57.77-4.29-.18"/><path stroke="#544236" stroke-width=".6" d="M73.62 51.63c-.91 2.14-1.02 7.44-1.33 8.4s-1.87.88-1.87.88"/><path fill="#544236" d="M53.59 46.91c2.04-1.46 6.38-2.95 8.94-3.11 1.54-.1 3.36 1.18 4.69 2.25-4.92-.79-8.31-.53-13.63.85z"/><path stroke="#544236" stroke-width=".6" d="M55.08 51.52c2.2-2.78 6.47-3.33 10.63-.16"/><path fill="#544236" d="M43.61 46.91c-2.04-1.46-6.38-2.95-8.94-3.11-1.54-.1-3.36 1.18-4.69 2.25 4.92-.79 8.31-.53 13.62.85z"/><path stroke="#544236" stroke-width=".6" d="M42.12 51.52c-2.2-2.78-6.47-3.33-10.63-.16"/><path fill="#544236" d="M35.13 51.17c-.04 1.13.87 2.08 2.03 2.12s2.14-.85 2.17-1.98c.04-1.13-.87-2.08-2.03-2.12s-2.13.85-2.18 1.98z"/><path fill="#fff" d="M36.06 50.76c0 .31.24.56.55.57.31 0 .58-.23.59-.54 0-.3-.24-.56-.55-.57-.31 0-.58.23-.59.53z"/><path fill="#544236" d="M62.07 51.17c.04 1.13-.87 2.08-2.03 2.12s-2.13-.85-2.17-1.98.87-2.08 2.03-2.12 2.14.85 2.18 1.98z"/><path fill="#fff" d="M61.15 50.76c0 .31-.24.56-.55.57-.32 0-.58-.23-.59-.54-.01-.3.24-.56.55-.57.31 0 .58.23.59.53z"/><path stroke="#544236" stroke-linecap="round" stroke-linejoin="round" stroke-width=".4" d="M44.52 47.82c1.17 1.04 2.37 2.49 2.42 3.67.06 1.36.03 6.36-.36 10.71"/><path stroke="#544236" stroke-width=".6" d="M45.05 60.91c-1.25.43-1.31 2.02-1.18 2.53.23.93 1 .89 1.84 1.09.5.1.98.52 1.31.69 1.08.52 2.4.56 3.46 0 .32-.17.81-.59 1.31-.69.84-.2 1.61-.16 1.84-1.09.13-.51.07-2.1-1.18-2.53"/><path stroke="#544236" stroke-linecap="round" stroke-linejoin="round" stroke-width=".6" d="M40.15 70.22c.41 1.23 4.09.77 6.36 1.22 1.19.33 2.61.33 3.97 0 2.26-.54 5.95.02 6.36-1.22M45.36 74.41c1.79.49 4.5.48 6.28 0"/><path stroke="#544236" stroke-linecap="round" stroke-linejoin="round" stroke-width=".4" d="M46.53 69.41c1.1.38 2.8.24 3.93 0"/><path stroke="#544236" stroke-width=".6" d="M71.48 65.93c-1.44 3.49-2.52 5.53-4.36 8.08-.2-1.1-1.33-.64-1.33-.64M26.64 65.92c1.75 3.09 3 5.81 4.7 8.17.2-1.1 1.27-.51 1.27-.51"/><path stroke="#544236" stroke-linecap="round" stroke-linejoin="round" stroke-width=".4" d="M61.85 27.31c-1.4-1.63-4.96-5.97-13.59-3.63-4.32 1.17-6.69 1.51-8.44 1.44M62.92 28.68c2.49.4 5.29 2.12 6.54 7.26.5 2.05 1.28 5.59 4.06 7.29M29.78 6.98c-.8 2.53 5.56 12.33 14.15 8.16M64.83 21.57c1.95.09 6.78 2.01 9.1 7.98"/><path stroke="#544236" stroke-width=".6" d="M64.62 74.76c-.49 5.17-.29 9.66.13 14.36M33.85 74.76c.49 5.17.29 9.66-.13 14.36"/><path stroke="#544236" stroke-linecap="round" stroke-linejoin="round" stroke-width=".4" d="M28.04 39.38c-1.24 3.53-2.8 9.59-5.13 10.84"/><path stroke="#544236" stroke-linecap="round" stroke-linejoin="round" stroke-width=".6" d="M72.92 56.14c.77-1 1.62-2.51 2.8-1.38"/><path stroke="#544236" stroke-linecap="round" stroke-linejoin="round" stroke-width=".6" d="M74.51 55.24c.13 1.73 0 5.28-1.8 6.77"/><path stroke="#544236" stroke-width=".6" d="M24.96 51.94c-1.35-.78-3.5-1.11-3.97 2.22-.45 3.17 1.2 8.98 3.85 11.18 1.04.86 3.57.77 4.29-.18"/><path stroke="#544236" stroke-linecap="round" stroke-linejoin="round" stroke-width=".6" d="M25.54 56.14c-.77-1-1.62-2.51-2.8-1.38"/><path stroke="#544236" stroke-linecap="round" stroke-linejoin="round" stroke-width=".6" d="M23.96 55.24c-.13 1.73 0 5.28 1.8 6.77"/><path stroke="#65babf" stroke-miterlimit="10" stroke-width="4.25" d="M49.23 94.58c25.532 0 46.23-20.698 46.23-46.23S74.762 2.12 49.23 2.12 3 22.818 3 48.35s20.698 46.23 46.23 46.23Z"/><defs><linearGradient id="a" x1="49.55" x2="49.2" y1="86.64" y2="73.71" gradientUnits="userSpaceOnUse"><stop stop-color="#fff"/><stop offset="1" stop-color="#c9caca"/></linearGradient></defs></svg>
